src/assets/2013.svg

<svg width="2472" height="2237" fill="none" xmlns="http://www.w3.org/2000/svg">
  <g filter="url(#filter0_d)">
    <path d="M1651.13 687.189c-37.6-35.48-6.65-189.894-134.77-224.335C1345.42 416.901 330.428 0 330.428 0L25 541.487S617.166 1242.75 658.642 1285.8c41.476 43.06 226.667 167.48 348.938 134.38 122.27-33.1 144.29-69.18 144.29-26.98 0 42.19-95.97 154.42-25.18 224.75 70.79 70.33 200.51 75.88 292.75 115.59 92.25 39.72-105.8 365.66 264.73 421.64 370.54 55.98 297.24-226.01 323.7-269.87 26.46-43.85 133.81 7.3 175.28-15.87 41.48-23.17 35.92-111.96 84.01-144.55 48.1-32.58 63.15-17.12 127.65-37.59 64.49-20.47 50.19-170.12 45.08-178.8-5.11-8.69-38.57-87.73-48.1-105.28-9.36-17.23-13.65-28.02-24.5-55.31l-.59-1.5c-11.29-28.41 13.99-56.48 39.73-106.95 25.74-50.47 72.95-109.08 5.02-165.85-67.93-56.77-162.24 18.36-202.84-38.01-40.6-56.37 6.17-96.086-84.06-132.013-90.22-35.927-233.37 61.664-304.89 49.908-71.52-11.755 3.25-117.069-22.26-151.325-25.51-34.256-108.66-79.5-146.27-114.981z" fill="#fff"/>
  </g>
  <defs>
    <filter id="filter0_d" x="0" y="0" width="2471.51" height="2236.51" filterUnits="userSpaceOnUse" color-interpolation-filters="sRGB">
      <feFlood flood-opacity="0" result="BackgroundImageFix"/>
      <feColorMatrix in="SourceAlpha" values="0 0 0 0 0 0 0 0 0 0 0 0 0 0 0 0 0 0 127 0"/>
      <feOffset dy="49"/>
      <feGaussianBlur stdDeviation="12.5"/>
      <feColorMatrix values="0 0 0 0 0 0 0 0 0 0 0 0 0 0 0 0 0 0 0.25 0"/>
      <feBlend in2="BackgroundImageFix" result="effect1_dropShadow"/>
      <feBlend in="SourceGraphic" in2="effect1_dropShadow" result="shape"/>
    </filter>
  </defs>
</svg>

<svg width="2472" height="2237" viewBox="0 0 2472 2237" fill="none" xmlns="http://www.w3.org/2000/svg">
<g filter="url(#filter0_d)">
<path d="M1651.13 687.189C1613.53 651.709 1644.48 497.295 1516.36 462.854C1345.42 416.901 330.428 0 330.428 0L25 541.487C25 541.487 617.166 1242.75 658.642 1285.8C700.118 1328.86 885.309 1453.28 1007.58 1420.18C1129.85 1387.08 1151.87 1351 1151.87 1393.2C1151.87 1435.39 1055.9 1547.62 1126.69 1617.95C1197.48 1688.28 1327.2 1693.83 1419.44 1733.54C1511.69 1773.26 1313.64 2099.2 1684.17 2155.18C2054.71 2211.16 1981.41 1929.17 2007.87 1885.31C2034.33 1841.46 2141.68 1892.61 2183.15 1869.44C2224.63 1846.27 2219.07 1757.48 2267.16 1724.89C2315.26 1692.31 2330.31 1707.77 2394.81 1687.3C2459.3 1666.83 2445 1517.18 2439.89 1508.5C2434.78 1499.81 2401.32 1420.77 2391.79 1403.22C2382.43 1385.99 2378.14 1375.2 2367.29 1347.91L2366.7 1346.41C2355.41 1318 2380.69 1289.93 2406.43 1239.46C2432.17 1188.99 2479.38 1130.38 2411.45 1073.61C2343.52 1016.84 2249.21 1091.97 2208.61 1035.6C2168.01 979.23 2214.78 939.514 2124.55 903.587C2034.33 867.66 1891.18 965.251 1819.66 953.495C1748.14 941.74 1822.91 836.426 1797.4 802.17C1771.89 767.914 1688.74 722.67 1651.13 687.189Z" fill="white"/>
</g>
<defs>
<filter id="filter0_d" x="0" y="0" width="2471.51" height="2236.51" filterUnits="userSpaceOnUse" color-interpolation-filters="sRGB">
<feFlood flood-opacity="0" result="BackgroundImageFix"/>
<feColorMatrix in="SourceAlpha" type="matrix" values="0 0 0 0 0 0 0 0 0 0 0 0 0 0 0 0 0 0 127 0"/>
<feOffset dy="49"/>
<feGaussianBlur stdDeviation="12.5"/>
<feColorMatrix type="matrix" values="0 0 0 0 0 0 0 0 0 0 0 0 0 0 0 0 0 0 0.25 0"/>
<feBlend mode="normal" in2="BackgroundImageFix" result="effect1_dropShadow"/>
<feBlend mode="normal" in="SourceGraphic" in2="effect1_dropShadow" result="shape"/>
</filter>
</defs>
</svg>
